!!!COM: Bach, Johann Sebastian
!!!CDT: 1685/3//-1750/7/28/
!!!OTL@@DE: Wenn wir in hoechsten Noeten sein
!!!AGN: 4-Part Chorale; Chorale Prelude
!!!SCT: BH 068
!!!SCT: BWV 431
!!!YEC: Copyright 1994, David Huron
!!!YEC: Changes/Additions Copyright 2001 by Craig Stuart Sapp
!!!license: GNU General Public License (http://www.gnu.org/copyleft/gpl.html)
!!!SMA: 371 Bach Chorales, edited by Ludwig Erk, C.F. Peters
!!!PDT: 1850, 1865
!!!ONB: Harmony and Root analysis done manually
**kern	**kern	**kern	**kern	**root	**harm
!bass	!tenor	!alto	!soprno	!	!
*Iorgan	*Iorgan	*Iorgan	*Iorgan	*Iorgan	*
*clefF4	*clefF4	*clefG2	*clefG2	*	*
*M4/4	*M4/4	*M4/4	*M4/4	*M4/4	*M4/4
*met(C)	*met(C)	*met(C)	*met(C)	*met(C)	*met(C)
*MM60	*MM60	*MM60	*MM60	*MM60	*MM60
*k[b-]	*k[b-]	*k[b-]	*k[b-]	*k[b-]	*k[b-]
*F:	*F:	*F:	*F:	*F:	*F:
8F	8A	[4c	4f	4FF	I
8E	8G	.	.	.	.
=1	=1	=1	=1	=1	=1
4D	4F	8c]	4f	4BB	viiob/V
.	.	8Bn	.	.	.
8E	8c	[4c	4g	8CC	Vb
8C	8B-y	.	.	8CC	V7
4F	8A	8c]	4a	4FF	I
.	8B-	8d	.	.	.
4C	4c	4e	8g	4CC	V
.	.	.	8a	.	.
=2	=2	=2	=2	=2	=2
8D	8F	8f	4b-	8BB-	IVb
8E	8c	[8g	.	8CC	V7b
4F	4c	8g]	4a	4FF	I
.	.	[8f	.	.	.
4BB-	8d	8f]	4.g	8GG	ii7b
.	8B-	16e	.	8GG	iib
.	.	16d	.	.	.
4C	8G	4e	.	4CC	V
.	16c	.	8g	.	.
.	16B-	.	.	.	.
=3	=3	=3	=3	=3	=3
2FF;	2A;	2c;	2f;	2FF;	I;
4r	4r	4r	4r	4r	r
8F	4c	[4f	4a	4FF	I
8E-	.	.	.	.	.
=4	=4	=4	=4	=4	=4
8D	8d	8f]	4b-	8BB-	IVb
8En	8c	[8g	.	8CC	V7b
4F	4c	8g]	4a	4FF	I
.	.	[8f	.	.	.
8BBn	8d	8f]	4g	8GG	V7b/V
8C	4c	8e	.	8CC	V
4D	.	4d	4f	4BB	viio/V
.	8Bn	.	.	.	.
!!linebreak: 2
=5	=5	=5	=5	=5	=5
8C	4c	4G	4e	4CC	V
8BB-y	.	.	.	.	.
8AA	4F	4c	4f	4FF	Ib
8FF	.	.	.	.	.
4C;	4E;	4c;	4g;	4CC;	V;
4AA	4A	8e	4cc	4AA	iii
.	.	8f#	.	.	.
=6	=6	=6	=6	=6	=6
4GG	8d	8g	4b-	8GG	ii
.	8c#	8e	.	8CC#	viioD7/vi
8D	4d	8fn	4a	4DD	vi
8Cn	.	8e	.	.	.
4BBn	4G	[4d	8g	4GG	Vb/V
.	.	.	8f	.	.
4C	4G	8d]	4e	4CC	V
.	.	[8c	.	.	.
=7	=7	=7	=7	=7	=7
4FF	4A	8c]	4f	4FF	I
.	.	16d	.	.	.
.	.	16c	.	.	.
4GG	8G	4Bn	4d	4GG	V/V
.	8F	.	.	.	.
4C;	4E;	4G;	4c;	4CC;	V;
4FF	4c	8f	4a	4FF	I
.	.	8e-	.	.	.
=8	=8	=8	=8	=8	=8
4GG	4B-	8d	4b-	4GG	ii
.	.	8en	.	.	.
8AA	[4c	[4f	4a	4FF	Ib
8BB-	.	.	.	.	.
4C	8.c]	8f]	4g	4CC	V
.	.	[8e	.	.	.
.	16B-	.	.	.	.
4D	8A	8e]	4f	8DD	vi
.	8B-	16d	.	8BB-	IVb
.	.	16e	.	.	.
=9	=9	=9	=9	=9	=9
8AA	4c	4.f	4a	4FF	Ib
8BB-	.	.	.	.	.
4C	8.c	.	4g	4CC	V
.	.	8e	.	.	.
.	16B-	.	.	.	.
4FF;	4A;	4c;	4f;	4FF;	I;
==	==	==	==	==	==
*-	*-	*-	*-	*-	*-
!!chor2scor: -l 2 -s 0.6 -o %b.pmx
